X:1
T:Title
%%score ( 1 2 ) { 3 | 4 }
L:1/8
Q:1/4=116
M:4/4
K:Ab
V:1 treble nm="Grand Piano, Staff 1"
V:2 treble 
V:3 bass nm="Choir Pad, The Service of the King"
V:4 bass 
V:1
 [CE]2 [CE]2 [EA]2 [EB]2 | [Ec]2 [DB]2 [DF]4 | [DG]>[DA] [DB]2 [DG]2 [DF]2 | [DE]2 [CE]6 | %4
w: By~Julia~Harriette~Johnston,~1907 * * *||||
 [CE]2 [CE]2 [CF]2 [EG]2 | [EA]2 [EG]2 [EB]4 | [EG]>[EG] [=DF]2 [DA]2 [DG]2 | [=DF]2 E6 | %8
w: ||||
 E2 [Ed]2- [Ed][Gd] [Gc]2 | [GB]2 [EB]2 [EA]4 | AG [DF]2- [DF][EG] [EA]2 | [Ec]2 [Ec]2 [EB]4 | %12
w: ||||
 E2 E2 [EA]2 [Ec]2 | [_Ge]2 [Fe]2 [Fd]4 | [FA]>[=EB] [_Ec]2 [CA]2 [DB]2 | [DB]2 [CA]6 | %16
w: ||||
 [CE]>[CA] [Ec]2 [Ec]2 [=D_c]2 | [=D_c]2 =c->[Ac-] [Gc-]>[Fc-] [Ec]2 | [EA]2 [FB]2 [FA]2 [DF]2 | %19
w: |||
 [DA]2 [CE]6 | E2 E2 [EA]2 [Ec]2 | [_Ge]2 [Fe]2 [Fd]2 [Fd]2 | [FA]>[=EB] [_Ec]2 [CA]2 [DB]2 | %23
w: ||||
 [DB]2 [CA]6- | [CA]2 z2 z4 |] %25
w: ||
V:2
 x8 | x8 | x8 | x8 | x8 | x8 | x8 | x8 | x8 | x8 | E2 z2 z4 | x8 | x8 | x8 | x8 | x8 | x8 | %17
 z2 E2 z4 | x8 | x8 | x8 | x8 | x8 | x8 | x8 |] %25
V:3
 A,2 A,2 A,2 G,2 | A,2 F,2 A,4 | E,>F, G,2 B,2 A,2 | G,2 A,6 | A,2 A,2 A,2 A,2 | A,2 B,2 G,4 | %6
 B,>B, B,2 F,2 B,2 | A,2 G,6 | G,2 G,2- G,B,[K:treble] E2 | D2 D2 C4 | A,2[K:bass] A,2- A,B, A,2 | %11
 A,2 A,2 G,4 | G,2 A,2 C2 A,2 | A,2 A,2 A,4 | D>A, A,2 A,2 G,2 | G,2 A,6 | A,>A, A,2 A,2 F,2 | %17
 F,2 E,2 A,>A, A,2 | A,2 D2 D2 A,2 | F,2 A,>G, F,>A, E,2 | G,2 A,2 C2 A,2 | A,2 A,2 A,2 A,2 | %22
 D>A, A,2 A,2 G,2 | G,2 A,6- | A,2 z2 z4 |] %25
V:4
 A,,2 A,,2 C,2 B,,2 | A,,2 D,2 D,4 | z z/ E,/ E,2 E,2 E,2 | E,2 A,,6 | A,,2 A,,2 A,,2 C,2 | %5
 C,2 B,,2 B,,4 | B,,>B,, B,,2 B,,2 B,,2 | B,,2 E,6 | E,2 E,2- E,E, E,2 | E,2 A,2 A,4 | %10
 C,2 D,2- D,D, C,2 | A,,2 E,2 E,4 | E,D, C,2 A,,2 A,,2 | C,2 D,2 D,4 | D,>D, E,2 E,2 E,2 | %15
 E,2 A,,6 | A,,>A,, A,,2 A,,2 A,,2 | A,,2 A,,6 | C,2 D,2 D,2 D,2 | D,2 A,,6 | E,D, C,2 A,,2 A,,2 | %21
 C,2 D,2 D,2 D,2 | D,>D, E,2 E,2 E,2 | E,2 A,,6- | A,,2 z2 z4 |] %25

